src/public/assets/framer.svg

<svg xmlns="http://www.w3.org/2000/svg" width="44" height="44" fill="none"><g clip-path="url(#a)"><g clip-path="url(#b)"><path fill="#E6E6E6" d="M12 7h20v10H22zm0 10h10l10 10H12zm0 10h10v10z"/></g></g><defs><clipPath id="a"><path fill="#fff" d="M0 0h44v44H0z"/></clipPath><clipPath id="b"><path fill="#fff" d="M0 0h44v44H0z"/></clipPath></defs></svg>

<svg width="44" height="44" viewBox="0 0 44 44" fill="none" xmlns="http://www.w3.org/2000/svg">
<g clip-path="url(#clip0_4781_65519)">
<g clip-path="url(#clip1_4781_65519)">
<path d="M12 7H32V17H22L12 7ZM12 17H22L32 27H12V17ZM12 27H22V37L12 27Z" fill="#E6E6E6"/>
</g>
</g>
<defs>
<clipPath id="clip0_4781_65519">
<rect width="44" height="44" fill="white"/>
</clipPath>
<clipPath id="clip1_4781_65519">
<rect width="44" height="44" fill="white"/>
</clipPath>
</defs>
</svg>
